dist/icons/svgs/flag-solid.svg

<svg xmlns="http://www.w3.org/2000/svg" width="24" height="24" fill="currentcolor" class="icon-flag-solid" viewBox="0 0 24 24">
  <path d="M5.75 3.25V3.875L8.44531 3.21094C9.92969 2.85938 11.4922 3.01562 12.8594 3.71875C14.6562 4.61719 16.8047 4.61719 18.6016 3.71875L18.9922 3.52344C19.7734 3.13281 20.75 3.71875 20.75 4.61719V14.2656C20.75 14.8125 20.3984 15.2422 19.9297 15.4375L18.5625 15.9453C16.7656 16.6484 14.7734 16.5312 13.0156 15.6719C11.5312 14.9297 9.85156 14.7344 8.25 15.125L5.75 15.75V20.75C5.75 21.4531 5.16406 22 4.5 22C3.79688 22 3.25 21.4531 3.25 20.75V16.375V4.5V3.25C3.25 2.58594 3.79688 2 4.5 2C5.16406 2 5.75 2.58594 5.75 3.25Z"/>
</svg>

<svg xmlns="http://www.w3.org/2000/svg" width="24" height="24" fill="currentColor" class="icon-flag-solid" viewBox="0 0 24 24">
  <path d="M5.75 3.25v.625l2.695-.664c1.485-.352 3.047-.195 4.414.508a6.45 6.45 0 0 0 5.743 0l.39-.196c.781-.39 1.758.196 1.758 1.094v9.649c0 .547-.352.976-.82 1.172l-1.367.507c-1.797.703-3.79.586-5.547-.273a6.95 6.95 0 0 0-4.766-.547l-2.5.625v5c0 .703-.586 1.25-1.25 1.25-.703 0-1.25-.547-1.25-1.25V3.25C3.25 2.586 3.797 2 4.5 2c.664 0 1.25.586 1.25 1.25"/>
</svg>
